X:1
T:It Is I
T:It Is I
T:Robert Lowry
T:Frederick A. Crafts, 1880
T:Public Domain Courtesy of the Cyber Hymnal™
C:Robert Lowry
Z:Public Domain
Z:Courtesy of the Cyber Hymnal™
%%score ( 1 2 ) ( 3 4 )
L:1/8
Q:1/4=100
M:2/4
K:G
V:1 treble 
V:2 treble 
V:3 bass 
V:4 bass 
V:1
 [B,D] | [DG][DG] [DG][DG] | [GB]2 [DG][DG] | [FA][FA] [FA][GB] | [FA]3 [FA] | [Ac][Ac] [GB][FA] | %6
w: 1.~The|storm in all its|fu- ry Swept|dark Gen- nes- a-|ret; They|cried in vain for|
w: 2.~And|life has days of|dark- ness, When|thick the storm- clouds|lower. When|waves dash fierce- ly|
w: 3.~He|walks the waves be-|side thee, No|storm can drive Him|thence; He|bids the wa- ters|
 [GB]2 [DG][DG] | [DF][DG] [FA][GB] | [FA]3 [Fd] | [Ac][GB] [FA][EG] | ([DF][^CE]) DD | %11
w: suc- cor, Till|hope’s lone star had|set; Then|Christ came on the|wa- * ters In|
w: round thee, And|threat- en to de-|vour; But|still thou need’st not|fal- * ter, There’s|
w: bear thee, His|arm is thy de-|fense; His|face shines on the|bil- * lows, Let|
 [CE][DF] [EG][EA] | [^DB]3 [DB] | [Ec][DA] [DF][DA] | (AG) [B,D][DG] | [DF][EG] [FA][GB] | %16
w: an- swer to their|cry, And|spake in tones of|com- * fort, “Fear|not, for it is|
w: One for- ev- er|nigh, Who|speaks a- bove the|tem- * pest, “Fear|not, for it is|
w: all thy ter- ror|fly; Fear|not to trust in|Je- * sus, He|beck- ons, “It is|
 !fermata![Ac]2 [Ac]2 | [GB]2 [EA]2 | [DG]2 [DF]2 | [DG]3 |] %20
w: I. Fear|not, for|it is|I.”|
w: I. Fear|not, for|it is|I.”|
w: I,” He|beck- ons,|“It is|I.”|
V:2
 x | x4 | x4 | x4 | x4 | x4 | x4 | x4 | x4 | x4 | x2 DD | x4 | x4 | x4 | D2 x2 | x4 | x4 | x4 | %18
 x4 | x3 |] %20
V:3
 G, | [G,B,][G,B,] [G,B,][G,B,] | [G,D]2 [G,B,][G,B,] | [D,D][D,D] [D,D][D,D] | [D,D]3 [D,D] | %5
 [D,D][D,D] [D,D][D,D] | [G,D]2 [G,B,][G,B,] | [D,A,][D,B,] [D,D][D,D] | [D,D]3 [D,A,] | %9
 [F,D][G,D] [D,C][E,B,] | (A,G,) [D,F,][B,,G,] | [C,G,][C,A,] [C,G,][C,E,] | [B,,F,]3 [B,,F,] | %13
 [A,,A,][D,C] [D,C][D,C] | (CB,) [G,,G,][G,,B,] | [D,A,][D,A,] [D,D][D,D] | %16
 !fermata![D,D]2 [F,D]2 | [G,D]2 [C,C]2 | [D,B,]2 [D,A,]2 | [G,,B,]3 |] %20
V:4
 G, | x4 | x4 | x4 | x4 | x4 | x4 | x4 | x4 | x4 | A,,2 x2 | x4 | x4 | x4 | G,,2 x2 | x4 | x4 | %17
 x4 | x4 | x3 |] %20

